lib/brands/icons/ms-visio.svg

<svg xmlns="http://www.w3.org/2000/svg" fill="none" aria-hidden="true" viewBox="0 0 48 48"><g id="ms-visio-Icon"><g id="Group"><path id="Vector" fill="#2B7CD3" d="M25.5686 15.4287H40.4314C41.2977 15.4287 42 16.131 42 16.9973V31.003C42 31.8693 41.2977 32.5716 40.4314 32.5716H25.5686C24.7023 32.5716 24 31.8693 24 31.003V16.9973C24 16.131 24.7023 15.4287 25.5686 15.4287Z"/><path id="Vector_2" fill="#41A5EE" d="M33.4286 15.4287C33.4303 15.8448 33.2633 16.2437 32.9657 16.5344L26.5715 22.9287L25.9629 23.5373C25.884 23.6132 25.8011 23.6848 25.7143 23.7516C25.4578 23.9136 25.1606 23.9998 24.8572 24.0002C24.4411 24.0019 24.0422 23.8349 23.7515 23.5373L16.7486 16.5344C16.22 16.0133 16.1339 15.191 16.5429 14.5716C16.6041 14.4829 16.673 14.3997 16.7486 14.323L23.7515 7.32015C24.3532 6.70949 25.336 6.70223 25.9467 7.30393C25.9521 7.3093 25.9575 7.3147 25.9629 7.32015L32.9657 14.323C33.2633 14.6137 33.4303 15.0127 33.4286 15.4287Z"/><path id="Vector_3" fill="#103F91" d="M33.4284 32.5716C33.4282 37.3054 29.5905 41.1428 24.8566 41.1426C21.7946 41.1425 18.9652 39.509 17.4341 36.8573C17.2692 36.5832 17.1259 36.2966 17.0055 36.0001C16.8792 35.7215 16.7705 35.4352 16.6798 35.143C15.2597 30.6272 17.7692 25.8151 22.285 24.3949C23.1172 24.1332 23.9845 24.0001 24.857 24.0001C25.1484 24.0001 25.4312 24.0173 25.7141 24.043C26.0023 24.0678 26.2885 24.1107 26.5713 24.1716C30.5596 24.9915 33.4236 28.4999 33.4284 32.5716Z"/><path id="Vector_4" fill="black" d="M26.5712 16.14V34.4315C26.567 35.0671 26.1818 35.638 25.5941 35.88C25.407 35.9592 25.2058 36 25.0027 36.0001H17.0055C16.8792 35.7214 16.7705 35.4351 16.6798 35.1429C15.2597 30.6271 17.7692 25.815 22.285 24.3949C23.1172 24.1331 23.9845 24 24.857 24C24.4409 24.0018 24.042 23.8348 23.7512 23.5372L16.7484 16.5343C16.2198 16.0132 16.1336 15.1909 16.5427 14.5715H25.0027C25.5894 14.575 26.1251 14.9057 26.3913 15.4286C26.5117 15.6462 26.5737 15.8913 26.5712 16.14Z" opacity="0.1"/><path id="Vector_5" fill="black" d="M25.7141 16.9973V35.2887C25.7141 35.4919 25.6733 35.693 25.5941 35.8801C25.3521 36.4679 24.7811 36.853 24.1455 36.8573H17.4341C17.2692 36.5832 17.1259 36.2966 17.0055 36.0001C16.8792 35.7215 16.7705 35.4352 16.6798 35.143C15.2597 30.6272 17.7692 25.8151 22.285 24.3949C23.1172 24.1332 23.9845 24.0001 24.857 24.0001C24.4409 24.0019 24.042 23.8349 23.7513 23.5373L16.7484 16.5344C16.4508 16.2437 16.2838 15.8448 16.2855 15.4287H24.1455C24.5802 15.4272 24.9949 15.6112 25.2855 15.9344C25.5596 16.2206 25.713 16.6011 25.7141 16.9973Z" opacity="0.2"/><path id="Vector_6" fill="black" d="M25.7141 16.9973V33.5744C25.7076 34.438 25.0091 35.1365 24.1455 35.143H16.6798C15.2597 30.6272 17.7692 25.8151 22.285 24.395C23.1172 24.1332 23.9845 24.0001 24.857 24.0002C24.4409 24.0019 24.042 23.8349 23.7513 23.5373L16.7484 16.5344C16.4508 16.2437 16.2838 15.8448 16.2855 15.4287H24.1455C24.5802 15.4272 24.9949 15.6112 25.2855 15.9344C25.5596 16.2206 25.713 16.6011 25.7141 16.9973Z" opacity="0.2"/><path id="Vector_7" fill="black" d="M24.8571 16.9973V24.0002C24.4411 24.0019 24.0421 23.8349 23.7514 23.5373L16.7485 16.5344C16.4509 16.2437 16.2839 15.8448 16.2857 15.4287H23.2885C24.1535 15.432 24.8538 16.1324 24.8571 16.9973Z" opacity="0.2"/><path id="Vector_8" fill="black" d="M24.857 24.0002V33.5744C24.8504 34.438 24.152 35.1365 23.2884 35.143H16.6798C15.2597 30.6272 17.7692 25.8151 22.285 24.395C23.1172 24.1332 23.9845 24.0001 24.857 24.0002Z" opacity="0.2"/><path id="Vector_9" fill="url(#paint0_linear_94_18813)" d="M7.57115 15.4287H23.286C24.1537 15.4287 24.8571 16.1321 24.8571 16.9999V32.7147C24.8571 33.5824 24.1537 34.2859 23.286 34.2859H7.57115C6.70342 34.2859 6 33.5824 6 32.7147V16.9999C6 16.1322 6.70342 15.4287 7.57115 15.4287Z"/><path id="Vector_10" fill="white" d="M14.9142 26.51C15.2027 27.3603 15.3742 27.8968 15.4284 28.1197H15.4636C15.5156 27.8968 15.701 27.3223 16.0199 26.396L18.3059 19.7497H20.4076L16.529 29.9643H14.2782L10.457 19.7497H12.6188L14.9142 26.51Z"/></g></g><defs><linearGradient id="paint0_linear_94_18813" x1="9.27587" x2="21.5813" y1="14.2011" y2="35.5135" gradientUnits="userSpaceOnUse"><stop stop-color="#2368C4"/><stop offset="0.5" stop-color="#1A5DBE"/><stop offset="1" stop-color="#1146AC"/></linearGradient></defs></svg>

<svg xmlns="http://www.w3.org/2000/svg" fill="none" aria-hidden="true" viewBox="0 0 48 48"><path fill="#2B7CD3" d="M25.569 15.429H40.43c.867 0 1.569.702 1.569 1.568v14.006c0 .866-.702 1.569-1.569 1.569H25.57A1.569 1.569 0 0 1 24 31.003V16.997c0-.866.702-1.568 1.569-1.568Z"/><path fill="#41A5EE" d="M33.429 15.429a1.54 1.54 0 0 1-.463 1.105L26.57 22.93l-.608.608a2.982 2.982 0 0 1-.249.215 1.61 1.61 0 0 1-.857.248 1.537 1.537 0 0 1-1.105-.463l-7.003-7.003a1.554 1.554 0 0 1 0-2.211l7.003-7.003a1.552 1.552 0 0 1 2.21 0l7.004 7.003c.297.29.464.69.463 1.106Z"/><path fill="#103F91" d="M33.429 32.572a8.571 8.571 0 0 1-15.995 4.285 6.16 6.16 0 0 1-.428-.857 7.35 7.35 0 0 1-.326-.857 8.571 8.571 0 0 1 9.034-11.1 8.586 8.586 0 0 1 7.714 8.529Z"/><path fill="#000" d="M26.571 16.14v18.291a1.578 1.578 0 0 1-1.568 1.57h-7.997a7.37 7.37 0 0 1-.326-.858A8.571 8.571 0 0 1 24.857 24a1.536 1.536 0 0 1-1.106-.463l-7.003-7.003a1.554 1.554 0 0 1-.205-1.962h8.46a1.569 1.569 0 0 1 1.388.857c.12.217.183.462.18.711Z" opacity=".1"/><path fill="#000" d="M25.714 16.997V35.29a1.578 1.578 0 0 1-1.569 1.569h-6.71a6.155 6.155 0 0 1-.43-.858 7.343 7.343 0 0 1-.325-.857A8.571 8.571 0 0 1 24.857 24a1.537 1.537 0 0 1-1.106-.463l-7.002-7.003a1.537 1.537 0 0 1-.463-1.105h7.86c.434-.002.85.182 1.14.505.274.287.427.667.428 1.063Z" opacity=".2"/><path fill="#000" d="M25.714 16.997v16.577a1.58 1.58 0 0 1-1.568 1.569H16.68A8.571 8.571 0 0 1 24.857 24a1.537 1.537 0 0 1-1.106-.463l-7.002-7.003a1.537 1.537 0 0 1-.463-1.105h7.86c.434-.002.85.182 1.14.505.274.287.427.667.428 1.063Z" opacity=".2"/><path fill="#000" d="M24.857 16.997V24a1.537 1.537 0 0 1-1.106-.463l-7.002-7.003a1.537 1.537 0 0 1-.463-1.105h7.003a1.575 1.575 0 0 1 1.568 1.568Z" opacity=".2"/><path fill="#000" d="M24.857 24v9.574a1.58 1.58 0 0 1-1.568 1.569H16.68A8.571 8.571 0 0 1 24.857 24Z" opacity=".2"/><path fill="url(#a)" d="M7.571 15.429h15.715a1.57 1.57 0 0 1 1.571 1.57v15.716a1.57 1.57 0 0 1-1.571 1.57H7.571A1.571 1.571 0 0 1 6 32.716V17a1.57 1.57 0 0 1 1.571-1.571Z"/><path fill="#fff" d="M14.914 26.51c.289.85.46 1.387.515 1.61h.035c.052-.223.237-.798.556-1.724l2.286-6.646h2.102l-3.879 10.214h-2.25L10.456 19.75h2.162l2.295 6.76Z"/><defs><linearGradient id="a" x1="9.276" x2="21.581" y1="14.201" y2="35.514" gradientUnits="userSpaceOnUse"><stop stop-color="#2368C4"/><stop offset=".5" stop-color="#1A5DBE"/><stop offset="1" stop-color="#1146AC"/></linearGradient></defs></svg>
